projects/ccf-eui/src/assets/icons/organ-icons/organ-icon-extrapulmonary-bronchus.svg

<svg width="64" height="64" viewBox="0 0 64 64" fill="currentColor" xmlns="http://www.w3.org/2000/svg">
<g clip-path="url(#clip0_1795_464)">
<path d="M13.3956 34.9253L13.2803 35.7585C13.0957 37.1934 13.7186 38.7441 14.9181 39.8319L15.1027 40.017C16.2791 40.9659 17.8016 41.3594 19.1396 41.0354L19.97 40.8271C19.97 40.8271 21.654 39.4616 22.5536 38.5358C22.2538 38.5821 21.9308 38.6284 21.6309 38.6284C19.9239 38.6284 18.0784 37.9572 16.579 36.6148C15.4948 35.6428 14.7336 34.4393 14.2953 33.1664C13.9493 33.7681 13.3956 34.9022 13.3956 34.9022V34.9253Z" />
<path d="M14.5721 40.3642C13.165 39.0913 12.5421 37.3323 12.7497 35.7817C11.9885 35.9668 11.2965 36.3371 10.7659 36.9389C9.15112 38.7441 9.54328 41.7528 11.6425 43.6507C13.7417 45.5485 16.7636 45.6179 18.3783 43.8127C18.9089 43.2109 19.2088 42.4703 19.3241 41.7066C17.8016 42.0769 15.9793 41.6603 14.5721 40.3873V40.3642Z" />
<path d="M9.19724 47.4231C8.04383 46.1039 7.72088 44.345 8.18224 42.8406C7.421 42.9795 6.65975 43.2804 6.05998 43.8358C4.19147 45.479 4.07613 48.4415 5.80623 50.4087C7.53634 52.3991 10.466 52.6537 12.3345 51.0105C12.9573 50.455 13.3726 49.7607 13.6032 49.0201C12.0577 49.2978 10.3506 48.7424 9.19724 47.4231Z" />
<path d="M40.2007 32.7729C38.3091 34.393 36.0254 35.0642 34.203 34.7402C34.203 35.6659 34.4798 36.4991 35.0335 37.1703C36.7405 39.1838 40.4314 38.8367 43.2918 36.4066C46.1292 33.9764 47.0519 30.3659 45.3449 28.3524C44.7682 27.6812 43.9839 27.3109 43.0842 27.1489C43.1073 29.0004 42.0923 31.1297 40.2007 32.7729Z" />
<path d="M43.7071 37.5406C41.8155 39.1607 39.7624 39.855 37.917 39.5079C37.9401 40.4336 37.9631 41.2668 38.5629 41.9611C40.3161 44.021 44.0531 43.7201 46.8905 41.29C49.7278 38.8598 50.6275 35.2031 48.8743 33.1432C48.2976 32.4489 47.4902 32.0555 46.5675 31.8934C46.6136 33.7681 45.6217 35.9205 43.7071 37.5638V37.5406Z" />
<path d="M48.5513 43.5118C46.5905 45.5485 44.3759 46.7983 42.692 47.0297C42.6228 47.8629 42.7843 48.5804 43.2456 49.0432C44.6758 50.4319 48.2052 49.0664 51.1349 46.0114C54.0645 42.9563 55.2641 39.369 53.8338 37.9804C53.3494 37.5175 52.6343 37.3786 51.8039 37.4943C51.6655 39.207 50.489 41.4751 48.5513 43.5118Z" />
<path d="M57.4325 43.5118C56.902 44.8079 55.9792 45.7336 55.0334 46.0576C55.2411 46.4974 55.564 46.8445 55.9792 47.0297C57.248 47.562 59.0242 46.1502 59.8085 44.2293C60.5928 42.3083 60.1315 40.5725 58.8627 40.0402C58.4475 39.855 57.9862 39.8782 57.5248 40.0402C57.9631 40.9196 57.9631 42.2389 57.4325 43.5349V43.5118Z" />
<path d="M51.4348 52.0057C49.4971 53.0009 47.5363 53.3249 46.1984 52.9546C45.9677 53.6026 45.9216 54.2044 46.1984 54.7135C46.9827 56.2411 49.9816 56.2642 52.8881 54.7598C55.7947 53.2555 57.5017 50.8022 56.7174 49.2515C56.4637 48.7424 55.9331 48.4183 55.2641 48.2332C54.7797 49.5293 53.3956 50.9642 51.4579 51.9594V52.0057H51.4348Z" />
<path d="M25.2065 18.5393C26.3368 19.7659 27.744 21.386 29.2434 22.0572C30.8351 22.7515 32.5882 22.1266 32.5882 22.1266C34.2953 21.386 35.91 19.6965 37.1788 18.3773C37.6401 17.8913 38.0323 17.4747 38.4245 17.1275L38.2399 8.67991C38.1938 6.5275 36.3253 4.83798 34.1799 5.02314C32.4729 5.162 28.3899 5.06943 28.2053 5.06943H27.9746C25.8062 4.90742 23.9608 6.66637 23.9839 8.86506L24.0992 17.4052C24.4452 17.7293 24.7912 18.1227 25.2065 18.5393Z" />
<path d="M25.5063 34.7865C23.9608 34.9253 21.9308 34.2773 20.9158 33.6524C20.639 33.4904 19.9469 32.8192 19.9469 32.8192C18.3322 31.3611 17.3864 29.4402 17.3172 27.5192C16.7635 27.7507 16.3022 28.0747 15.9331 28.4681C15.218 29.255 14.872 30.3196 14.9412 31.5C15.0334 33.0969 15.8639 34.6939 17.2018 35.8742C19.6009 38.0266 22.9689 38.1886 24.699 36.2677C25.068 35.8742 25.3218 35.3651 25.4833 34.7865H25.5063Z" />
<path d="M9.10498 53.024C8.98964 53.024 8.8743 53.024 8.75896 53.024C7.32874 52.9314 6.01387 52.2603 5.04501 51.1493C4.09922 50.0616 3.59172 48.6266 3.68399 47.2148C3.73013 46.6131 3.86854 46.0576 4.09922 45.5253C3.7532 45.7105 3.40718 45.8956 3.08422 45.9882C2.76127 46.1039 2.50752 46.3354 2.39218 46.6362C2.34605 46.752 1.16958 49.6681 3.26877 52.5611C5.32182 55.3847 8.8051 55.4079 8.94351 55.4079C9.33567 55.4079 9.70475 55.1996 9.91237 54.8755C10.3507 54.1812 10.9504 53.3017 11.5963 52.3528C10.8582 52.7926 10.0046 53.024 9.10498 53.024Z" />
<path d="M9.33559 41.6371L9.05877 42.5397C8.64354 43.9052 8.98956 45.4559 9.95842 46.5668C10.9273 47.7009 12.4267 48.2332 13.8339 47.9786L14.7796 47.8166C14.7796 47.8166 15.933 46.4742 16.579 45.6179C16.2099 45.7336 15.8408 45.8031 15.4486 45.8262C15.3563 45.8262 15.2641 45.8262 15.1718 45.8262C13.7416 45.8262 12.2652 45.2476 11.1118 44.2061C10.0738 43.2572 9.35865 41.6371 9.35865 41.6371H9.33559Z" />
<path d="M33.6263 33.7913L34.2953 33.907C36.0254 34.2079 38.1246 33.5135 39.8085 32.0786C41.5156 30.5974 42.5075 28.6533 42.4844 26.8943V26.2C42.4844 26.2 41.5848 20.8306 41.5848 18.4467C41.5848 17.9838 41.308 17.5673 40.8927 17.3821C40.4544 17.1969 39.97 17.2895 39.647 17.6135L36.0023 21.1546C34.4106 22.6821 33.0035 23.5384 32.2883 23.6773C32.1038 23.7236 30.3968 23.9319 29.8893 23.7467C28.0208 23.0755 26.9366 22.3118 25.7832 20.7148L23.1765 17.1275C22.9227 16.7804 22.4844 16.5952 22.0692 16.6646C21.6309 16.7341 21.2849 17.0349 21.1465 17.4515C20.4314 19.6734 18.5859 25.8297 18.5859 25.8297L18.4936 26.6397C18.3091 28.3061 19.0011 30.0882 20.3391 31.4537L20.7082 31.7777C22.2768 33.1895 24.3299 33.7913 26.083 33.3747L26.8904 33.1895C26.8904 33.1895 29.3587 33.259 30.489 33.2358C30.5121 33.2358 30.5352 33.2358 30.5582 33.2358C31.504 33.2358 33.6263 33.8144 33.6263 33.8144V33.7913Z" />
<path d="M41.9077 46.2891L42.369 46.2197C44.0069 45.9882 46.1291 44.7153 47.8823 42.8638C49.6585 40.9891 50.835 38.8367 50.9734 37.1935L51.0196 36.7306C51.0196 36.7306 50.7889 36.4297 50.5813 36.2908C50.5813 36.7769 50.5351 37.2629 50.4198 37.7952C50.0276 39.4616 48.9896 41.0585 47.5132 42.3083C46.0599 43.5581 44.3068 44.3218 42.6228 44.4607C42.4382 44.4607 42.2537 44.4607 42.0922 44.4607C41.6309 44.4607 41.1926 44.3913 40.7773 44.2987C41.1695 44.9467 41.5386 45.5948 41.9077 46.2659V46.2891Z" />
<path d="M61.8154 42.748C61.654 42.2851 61.4002 41.938 61.1003 41.6371C61.3541 42.5397 61.2849 43.6275 60.8235 44.7616C60.2929 46.0345 59.3933 47.076 58.4014 47.6314C58.8166 47.7472 59.301 47.8166 59.8316 47.6314C60.5006 47.4 61.0311 46.8677 61.4233 46.0576C62.0231 44.831 62.1615 43.7201 61.8385 42.7712L61.8154 42.748Z" />
<path d="M57.3403 51.6354C57.3403 51.6354 57.248 51.4734 57.1788 51.3808C56.7175 52.8851 55.218 54.5284 53.0266 55.6393C51.5502 56.403 50.0046 56.8196 48.6667 56.8196H48.6206C48.2053 56.8196 47.8132 56.7502 47.4672 56.6808C47.5594 56.8891 47.6748 57.0974 47.744 57.3057C47.9285 57.7223 48.3207 58 48.759 58C48.759 58 48.8513 58 48.9897 58C49.774 58 52.496 57.9074 54.3414 56.8428C56.5329 55.5699 57.5479 52.9314 57.594 52.8157C57.7555 52.3991 57.6402 51.9131 57.3403 51.6122V51.6354Z" />
<path d="M45.1141 51.7974L45.6216 51.9362C46.7981 52.2603 48.5743 51.9362 50.2814 51.1031V51.0568L50.4659 50.9642C52.196 50.0847 53.534 48.7655 53.9953 47.5389L54.1799 47.0528C54.1799 47.0528 53.9261 46.2197 53.7877 45.8956L53.5109 45.317L54.1107 45.1087C54.9411 44.831 55.7254 43.9747 56.1637 42.8869L56.2791 42.6323C56.6251 41.614 56.6251 40.5956 56.2791 39.9013L55.9792 39.3227C55.9792 39.3227 55.7485 38.7904 55.3102 38.6284C55.1257 38.559 55.1949 38.7673 55.0103 38.6978C55.7485 40.6188 54.5028 43.8358 51.7808 46.6825C49.5893 48.9507 46.775 50.131 44.8373 50.1542C44.8143 50.1542 44.7912 50.1542 44.7681 50.1542C44.599 50.1542 44.4375 50.2004 44.2837 50.293C44.6297 50.9411 45.068 51.7742 45.068 51.7742L45.1141 51.7974Z" />
</g>
<defs>
<clipPath id="clip0_1795_464">
<rect width="60" height="53"  transform="translate(2 5)"/>
</clipPath>
</defs>
</svg>

<svg xmlns="http://www.w3.org/2000/svg" width="64" height="64" fill="currentColor" viewBox="0 0 64 64"><g clip-path="url(#a)"><path d="m13.396 34.925-.116.834c-.184 1.434.439 2.985 1.638 4.073l.185.185c1.176.949 2.699 1.342 4.037 1.018l.83-.208s1.684-1.365 2.584-2.291a6 6 0 0 1-.923.092c-1.707 0-3.553-.67-5.052-2.013a8.2 8.2 0 0 1-2.284-3.449c-.346.602-.9 1.736-.9 1.736z"/><path d="M14.572 40.364c-1.407-1.273-2.03-3.032-1.822-4.582-.761.185-1.453.555-1.984 1.157-1.615 1.805-1.223 4.814.877 6.712s5.12 1.967 6.735.162c.53-.602.83-1.343.946-2.106-1.522.37-3.345-.047-4.752-1.32zM9.197 47.423c-1.153-1.32-1.476-3.078-1.015-4.582-.761.139-1.522.44-2.122.995-1.869 1.643-1.984 4.605-.254 6.573 1.73 1.99 4.66 2.245 6.529.602a4.4 4.4 0 0 0 1.268-1.99c-1.545.277-3.252-.279-4.406-1.598M40.2 32.773c-1.89 1.62-4.175 2.291-5.997 1.967 0 .926.277 1.76.83 2.43 1.707 2.014 5.398 1.667 8.259-.763 2.837-2.43 3.76-6.041 2.053-8.055-.577-.67-1.361-1.041-2.26-1.203.022 1.851-.993 3.98-2.884 5.624"/><path d="M43.707 37.54c-1.892 1.62-3.945 2.315-5.79 1.968.023.926.046 1.759.646 2.453 1.753 2.06 5.49 1.76 8.328-.671s3.736-6.087 1.983-8.147c-.576-.694-1.384-1.087-2.306-1.25.046 1.875-.946 4.027-2.86 5.67zM48.551 43.512c-1.96 2.036-4.175 3.286-5.859 3.518-.07.833.092 1.55.554 2.013 1.43 1.389 4.96.023 7.889-3.032s4.13-6.642 2.699-8.03c-.485-.464-1.2-.602-2.03-.487-.139 1.713-1.315 3.981-3.253 6.018M57.433 43.512c-.531 1.296-1.454 2.222-2.4 2.546.208.44.531.786.946.972 1.269.532 3.045-.88 3.83-2.8.784-1.922.323-3.657-.946-4.19-.416-.185-.877-.162-1.338 0 .438.88.438 2.199-.093 3.495zM51.435 52.006c-1.938.995-3.899 1.319-5.237.949-.23.648-.276 1.25 0 1.759.785 1.527 3.784 1.55 6.69.046s4.614-3.958 3.83-5.508c-.254-.51-.785-.834-1.454-1.019-.484 1.296-1.868 2.731-3.806 3.726v.047zM25.207 18.54c1.13 1.226 2.537 2.846 4.036 3.517 1.592.695 3.345.07 3.345.07 1.707-.741 3.322-2.43 4.59-3.75.462-.486.854-.902 1.247-1.25L38.24 8.68c-.046-2.152-1.915-3.842-4.06-3.657-1.707.139-5.79.046-5.975.046h-.23c-2.169-.162-4.014 1.597-3.991 3.796l.115 8.54c.346.324.692.718 1.107 1.134M25.506 34.787c-1.545.138-3.575-.51-4.59-1.135-.277-.162-.97-.833-.97-.833-1.614-1.458-2.56-3.379-2.629-5.3a4 4 0 0 0-1.384.95c-.715.786-1.061 1.85-.992 3.031.092 1.597.923 3.194 2.26 4.374 2.4 2.153 5.768 2.315 7.498.394.369-.394.623-.903.784-1.482zM9.105 53.024h-.346c-1.43-.093-2.745-.764-3.714-1.875-.946-1.087-1.453-2.522-1.361-3.934a5.2 5.2 0 0 1 .415-1.69c-.346.186-.692.37-1.015.463a1.13 1.13 0 0 0-.692.648c-.046.116-1.222 3.032.877 5.925 2.053 2.824 5.536 2.847 5.675 2.847.392 0 .76-.208.968-.532.439-.695 1.038-1.574 1.684-2.523a4.84 4.84 0 0 1-2.491.671M9.336 41.637l-.277.903c-.415 1.365-.07 2.916.9 4.027.968 1.134 2.468 1.666 3.875 1.412l.946-.162s1.153-1.343 1.799-2.2c-.37.117-.738.186-1.13.21h-.277c-1.43 0-2.907-.58-4.06-1.62-1.038-.95-1.753-2.57-1.753-2.57z"/><path d="m33.626 33.791.67.116c1.73.3 3.829-.393 5.513-1.828 1.707-1.482 2.699-3.426 2.675-5.185V26.2s-.9-5.37-.9-7.753c0-.463-.276-.88-.691-1.065a1.12 1.12 0 0 0-1.246.231l-3.645 3.542c-1.591 1.527-2.998 2.383-3.714 2.522-.184.047-1.891.255-2.399.07-1.868-.671-2.952-1.435-4.106-3.032l-2.607-3.587a1.16 1.16 0 0 0-1.107-.463c-.438.07-.784.37-.922.787-.716 2.221-2.561 8.378-2.561 8.378l-.092.81c-.185 1.666.507 3.448 1.845 4.814l.37.324c1.568 1.412 3.62 2.013 5.374 1.597l.807-.185s2.469.069 3.599.046h.07c.945 0 3.067.578 3.067.578zM41.908 46.29l.461-.07c1.638-.232 3.76-1.505 5.513-3.356 1.776-1.875 2.953-4.027 3.091-5.67l.047-.463s-.231-.301-.439-.44c0 .486-.046.972-.161 1.504-.392 1.667-1.43 3.264-2.907 4.513-1.453 1.25-3.206 2.014-4.89 2.153h-.53c-.462 0-.9-.07-1.316-.162.392.648.762 1.296 1.13 1.967zM61.815 42.748a2.9 2.9 0 0 0-.715-1.11c.254.902.185 1.99-.276 3.124-.531 1.273-1.43 2.314-2.423 2.87.416.115.9.185 1.43 0 .67-.232 1.2-.764 1.592-1.574.6-1.227.738-2.338.416-3.287zM57.34 51.635s-.092-.162-.161-.254c-.462 1.504-1.961 3.147-4.152 4.258-1.477.764-3.022 1.18-4.36 1.18h-.046c-.416 0-.808-.069-1.154-.138.092.208.208.416.277.625.184.416.577.694 1.015.694h.23c.785 0 3.507-.093 5.352-1.157 2.192-1.273 3.207-3.912 3.253-4.027a1.15 1.15 0 0 0-.254-1.204zM45.114 51.797l.508.14c1.176.323 2.952 0 4.66-.834v-.046l.184-.093c1.73-.88 3.068-2.198 3.53-3.425l.184-.486s-.254-.833-.392-1.157l-.277-.579.6-.208c.83-.278 1.614-1.134 2.053-2.222l.115-.255c.346-1.018.346-2.036 0-2.73l-.3-.58s-.23-.532-.669-.694c-.184-.069-.115.14-.3.07.739 1.92-.507 5.138-3.23 7.984-2.19 2.269-5.005 3.449-6.943 3.472h-.069q-.253 0-.484.139c.346.648.784 1.481.784 1.481z"/></g><defs><clipPath id="a"><path d="M2 5h60v53H2z"/></clipPath></defs></svg>
